X: 124
T: Jig of Slurs
M:6/8
C:Pipe Major G. S. MacLennan (1883-1927)
R:jig
K:D
"D"A2d dcd| "G"Bdd "D"Add| "G"Bdd "D"Add| "A"Bee edB|
"D"A2d dcd| "G"Bdd "D"Add| "G"Bdd "A"cde| "D"fdc d2B:|
|: "D"A2f fef| aff fed| "A"Bee ede| "D"fed "Em"edB|
"D"A2f fef| aff fed| "G"Bdd "A"cde| "D"fdc d2B:|
|: "G"G2g gfg| "D"agf "G"gdB| "G"G2g gfg| "D"agf "G"gab|
"G"G2g gfg| "D"agf "G"gdB| "Em(C)"eee "(C)"efg| "D"fed "Em"edB:|
|: "G"GBB Bdd| "Em"dee edB| "G"GBB Bdd| "Em"dee efg|
"G"GBB Bdd| "Em"dee edB| "(C)"eee "(C)"efg| "D"fed "Em"edB:|


